X: 3
T: Gypsy Princess
R: barndance
M: 4/4
L: 1/8
K: Gmaj
(B2 B)B B2B2|ABAG E2 D2|DEGA BddB|e2 dB A2 GA|
(B2 B)B B2B2|ABAG E2 D2|DEGA Bddc|1B2 A2 G2 D/E/G/A/:|2B2 A2 G2 A/B/c||
|:(d2 d)d d2 d2 |B2 BA G2 Bd|(e2e)e e2 e2|B2 BA G2 Bc|
(d2 d)d d2 d2 |B2 BA G2 Bd|gfge dBAc|1B2 A2 G2 A/B/c:|2B2 A2 G2 D/E/G/A/||


Tune 4577	Setting 17141

